static/logos/salesforce-wordmark-color.svg

<svg width="100" height="23" viewBox="0 0 100 23" fill="none" xmlns="http://www.w3.org/2000/svg">
<g clip-path="url(#clip0_1_1218)">
<path fill-rule="evenodd" clip-rule="evenodd" d="M0.194086 15.6741C0.111076 15.8906 0.223696 15.9358 0.250395 15.9741C0.498453 16.1537 0.750395 16.2838 1.00282 16.4299C2.35234 17.1435 3.62418 17.3523 4.95429 17.3523C7.66303 17.3523 9.34749 15.9105 9.34749 13.5901V13.5445C9.34749 11.3989 7.44458 10.6173 5.66788 10.0591L5.43536 9.98383C4.09069 9.54791 2.93049 9.1683 2.93049 8.2848V8.23966C2.93049 7.48238 3.6101 6.92412 4.65865 6.92412C5.82371 6.92412 7.21206 7.31199 8.1004 7.80277C8.1004 7.80277 8.36351 7.97267 8.45914 7.71878C8.51108 7.58141 8.964 6.36927 9.01254 6.23335C9.064 6.09111 8.97371 5.98383 8.88099 5.92849C7.86157 5.30713 6.4538 4.8848 4.99749 4.8848L4.72709 4.88577C2.24651 4.88577 0.513502 6.38577 0.513502 8.53141V8.57752C0.513502 10.8397 2.42612 11.5775 4.21253 12.0872L4.49991 12.1766C5.80089 12.5766 6.9271 12.9241 6.9271 13.8367V13.8824C6.9271 14.7222 6.19409 15.3484 5.01934 15.3484C4.56253 15.3484 3.10671 15.3406 1.52904 14.3435C1.33826 14.2324 1.22952 14.1523 1.08243 14.0625C1.00476 14.0154 0.810589 13.9304 0.726123 14.1848L0.192143 15.6702L0.194086 15.6741ZM39.8523 15.6702C39.7693 15.8867 39.882 15.9319 39.9096 15.9702C40.1567 16.1499 40.4096 16.2799 40.6621 16.4261C42.0116 17.1397 43.2834 17.3484 44.6135 17.3484C47.3222 17.3484 49.0067 15.9066 49.0067 13.5863V13.5406C49.0067 11.395 47.1087 10.6134 45.3271 10.0552L45.0946 9.97995C43.7499 9.54403 42.5897 9.16442 42.5897 8.28092V8.23577C42.5897 7.47849 43.2693 6.92024 44.3179 6.92024C45.4829 6.92024 46.8664 7.30811 47.7596 7.79888C47.7596 7.79888 48.0227 7.96878 48.1189 7.7149C48.1703 7.57752 48.6237 6.36539 48.6674 6.22946C48.7193 6.08723 48.6286 5.97995 48.5363 5.92461C47.5169 5.30325 46.1091 4.88092 44.6528 4.88092L44.382 4.88189C41.9014 4.88189 40.1684 6.38189 40.1684 8.52752V8.57364C40.1684 10.8358 42.081 11.5736 43.8674 12.0833L44.1543 12.1727C45.4601 12.5727 46.5815 12.9202 46.5815 13.8329V13.8785C46.5815 14.7183 45.8485 15.3445 44.6737 15.3445C44.2159 15.3445 42.7562 15.3367 41.1834 14.3397C40.9926 14.2285 40.881 14.1518 40.7363 14.0586C40.6873 14.0275 40.4587 13.9382 40.3805 14.1809L39.8465 15.6664L39.8523 15.6702ZM66.9339 11.1227C66.9339 12.4333 66.6892 13.4673 66.2106 14.2003C65.7329 14.9236 65.0116 15.278 64.0067 15.278C63.0019 15.278 62.2834 14.9266 61.8125 14.2052C61.3383 13.477 61.0989 12.4382 61.0989 11.1275C61.0989 9.81684 61.3397 8.78772 61.8125 8.06442C62.2824 7.34597 62.997 7.00131 64.0067 7.00131C65.0164 7.00131 65.7349 7.34937 66.2106 8.06442C66.6922 8.78772 66.9339 9.81684 66.9339 11.1275V11.1227ZM69.196 8.69548C68.9732 7.94306 68.6281 7.28286 68.1669 6.72946C67.7053 6.17607 67.1232 5.72946 66.429 5.40908C65.7397 5.08626 64.9242 4.92364 64.0019 4.92364C63.0795 4.92364 62.2689 5.08723 61.5747 5.40908C60.8854 5.73141 60.298 6.17607 59.8368 6.72946C59.3766 7.28286 59.031 7.94306 58.8077 8.69548C58.5868 9.44306 58.4747 10.2586 58.4747 11.1275C58.4747 11.9965 58.5868 12.812 58.8077 13.5596C59.0295 14.312 59.3756 14.9722 59.8368 15.5256C60.2985 16.079 60.8854 16.5207 61.5747 16.8363C62.2689 17.1508 63.0844 17.311 64.0019 17.311C64.9193 17.311 65.7349 17.1508 66.4242 16.8363C67.1135 16.5217 67.7009 16.079 68.1621 15.5256C68.6227 14.9722 68.9679 14.312 69.1912 13.5596C69.4116 12.812 69.5237 11.9965 69.5237 11.1275C69.5237 10.2634 69.4116 9.44306 69.1912 8.69548H69.196ZM87.7834 14.9091C87.7091 14.6892 87.4946 14.7722 87.4946 14.7722C87.1659 14.8979 86.815 15.0144 86.4412 15.0727C86.0645 15.1319 85.6451 15.1615 85.2033 15.1615C84.1111 15.1615 83.2373 14.8358 82.6159 14.1906C81.9897 13.545 81.6402 12.5062 81.6451 11.0984C81.6485 9.81684 81.9582 8.85568 82.514 8.11781C83.0625 7.38966 83.9072 7.01102 85.0237 7.01102C85.9557 7.01102 86.6693 7.11927 87.4169 7.35325C87.4169 7.35325 87.5941 7.43043 87.679 7.19694C87.8776 6.6484 88.0242 6.25519 88.2373 5.65325C88.2975 5.48092 88.1499 5.4081 88.096 5.38723C87.8028 5.27267 87.1106 5.0848 86.5863 5.00568C86.096 4.93092 85.5281 4.89209 84.8873 4.89209C83.9358 4.89209 83.0912 5.05471 82.3679 5.37704C81.6446 5.69888 81.0329 6.14403 80.5475 6.69743C80.0621 7.25082 79.6931 7.91102 79.4456 8.66345C79.2004 9.41102 79.0766 10.2314 79.0766 11.1003C79.0766 12.9741 79.5815 14.4935 80.5815 15.6052C81.5815 16.7217 83.0863 17.2848 85.0475 17.2848C86.2077 17.2848 87.397 17.0503 88.2514 16.712C88.2514 16.712 88.4145 16.6333 88.3436 16.4431L87.7854 14.9091H87.7834ZM91.7417 9.86053C91.8499 9.13238 92.0494 8.52558 92.363 8.05471C92.8324 7.33626 93.5475 6.94306 94.5523 6.94306C95.5572 6.94306 96.2222 7.3382 96.698 8.05471C97.0135 8.52801 97.1514 9.15665 97.2028 9.86053L91.7174 9.85956L91.7417 9.86053ZM99.363 8.25859C99.1703 7.53529 98.6931 6.80228 98.3824 6.46733C97.8873 5.9382 97.4067 5.56442 96.9261 5.36053C96.2324 5.06548 95.4858 4.91408 94.732 4.91539C93.7756 4.91539 92.9067 5.07704 92.2028 5.40568C91.4989 5.73675 90.9067 6.18723 90.4407 6.75034C89.9752 7.31344 89.6252 7.97849 89.4019 8.74063C89.1786 9.49306 89.0659 10.3183 89.0659 11.1824C89.0659 12.0659 89.1829 12.8863 89.413 13.629C89.6455 14.3766 90.0198 15.0319 90.5247 15.5756C91.0295 16.1241 91.6752 16.5513 92.4519 16.8523C93.2237 17.1508 94.1606 17.3057 95.2334 17.3023C97.447 17.295 98.6121 16.8023 99.0878 16.5353C99.1727 16.4877 99.2528 16.4057 99.1528 16.1693L98.6528 14.7664C98.5761 14.5571 98.3645 14.6329 98.3645 14.6329C97.8159 14.8377 97.0392 15.2057 95.2189 15.2008C94.0295 15.1989 93.1509 14.8479 92.5975 14.2979C92.0344 13.7348 91.7528 12.9144 91.7091 11.7494L99.379 11.7552C99.379 11.7552 99.581 11.7533 99.6019 11.5562C99.6101 11.4746 99.8645 9.98335 99.3732 8.26005L99.363 8.25859ZM30.431 9.86053C30.5392 9.13238 30.7392 8.52558 31.0523 8.05471C31.5222 7.33626 32.2368 6.94306 33.2417 6.94306C34.2465 6.94306 34.9116 7.3382 35.3873 8.05471C35.7023 8.52801 35.8402 9.15665 35.8922 9.86053L30.4067 9.85956L30.431 9.86053ZM38.0523 8.25859C37.8601 7.53529 37.3824 6.80228 37.0718 6.46733C36.5766 5.9382 36.096 5.56442 35.6155 5.36053C34.9216 5.06548 34.1752 4.91408 33.4213 4.91539C32.465 4.91539 31.596 5.07704 30.8922 5.40568C30.1883 5.73675 29.596 6.18723 29.13 6.75034C28.6655 7.31344 28.3145 7.97849 28.0912 8.74063C27.8684 9.49306 27.7562 10.3183 27.7562 11.1824C27.7562 12.0659 27.8722 12.8863 28.1038 13.629C28.3358 14.3766 28.7106 15.0319 29.2106 15.5756C29.7155 16.1241 30.3611 16.5513 31.1378 16.8523C31.9096 17.1508 32.8417 17.3057 33.9193 17.3023C36.1329 17.295 37.298 16.8023 37.7737 16.5353C37.8582 16.4877 37.9388 16.4057 37.8383 16.1693L37.3383 14.7664C37.2611 14.5571 37.0494 14.6329 37.0494 14.6329C36.5009 14.8377 35.7242 15.2057 33.9038 15.2008C32.7193 15.1989 31.8358 14.8479 31.2824 14.2979C30.7193 13.7348 30.4378 12.9144 30.3941 11.7494L38.064 11.7552C38.064 11.7552 38.2659 11.7533 38.2868 11.5562C38.2951 11.4746 38.5494 9.98335 38.0577 8.26005L38.0523 8.25859ZM13.8776 14.8605C13.5771 14.6207 13.5354 14.562 13.4358 14.4062C13.2839 14.1717 13.2062 13.8382 13.2062 13.411C13.2062 12.7411 13.4295 12.2557 13.8907 11.9304C13.8858 11.9314 14.5509 11.3576 16.114 11.377C16.8097 11.3895 17.5039 11.4487 18.1917 11.5542V15.0348H18.1926C18.1926 15.0348 17.2218 15.244 16.1247 15.31C14.5664 15.4037 13.8771 14.8615 13.882 14.863L13.8776 14.8605ZM16.9261 9.47218C16.6155 9.44937 16.2125 9.4382 15.732 9.4382C15.0766 9.4382 14.4407 9.51976 13.8485 9.67995C13.2514 9.84111 12.7125 10.0906 12.2514 10.4227C11.7889 10.7526 11.4086 11.1844 11.1397 11.6848C10.8684 12.1897 10.73 12.7819 10.73 13.4518C10.73 14.1314 10.848 14.7188 11.081 15.1994C11.3093 15.6761 11.653 16.0882 12.081 16.3984C12.5067 16.7081 13.0324 16.9372 13.6392 17.0732C14.2412 17.2105 14.9208 17.2799 15.6684 17.2799C16.4548 17.2799 17.2363 17.2139 17.9936 17.0863C18.6386 16.975 19.2811 16.85 19.9208 16.7115C20.1761 16.6528 20.4596 16.5756 20.4596 16.5756C20.6489 16.5275 20.6344 16.3251 20.6344 16.3251L20.63 9.3348C20.63 7.80082 20.2203 6.66005 19.4116 5.95616C18.6057 5.25228 17.4261 4.89791 15.897 4.89791C15.3242 4.89791 14.397 4.97558 13.8436 5.08675C13.8436 5.08675 12.1737 5.41102 11.4844 5.95082C11.4844 5.95082 11.3329 6.04403 11.4155 6.25519L11.9591 7.7115C12.0266 7.90034 12.2106 7.83578 12.2106 7.83578C12.2106 7.83578 12.2684 7.81296 12.3363 7.77267C13.8072 6.9717 15.6713 6.99597 15.6713 6.99597C16.4965 6.99597 17.1373 7.16344 17.5645 7.49111C17.9824 7.81199 18.1956 8.29694 18.1956 9.31636V9.64014C17.5402 9.545 16.9334 9.49014 16.9334 9.49014L16.9261 9.47218ZM78.5766 5.52558C78.5878 5.49995 78.5936 5.47243 78.5936 5.44456C78.5936 5.41665 78.5883 5.38903 78.5776 5.3633C78.5669 5.33757 78.5509 5.31427 78.531 5.2948C78.5111 5.27529 78.4873 5.26 78.4616 5.24985C78.331 5.20034 77.68 5.06296 77.18 5.03189C76.2188 4.9717 75.6849 5.13383 75.2043 5.34937C74.7295 5.56344 74.2043 5.90762 73.913 6.30568L73.9121 5.37364C73.9121 5.24548 73.8213 5.14209 73.6922 5.14209H71.731C71.6038 5.14209 71.5116 5.24548 71.5116 5.37364V16.7814C71.5116 16.843 71.5363 16.9021 71.58 16.9457C71.6232 16.9893 71.6824 17.0138 71.7441 17.0139H73.7538C73.8155 17.0138 73.8742 16.9892 73.9179 16.9456C73.9616 16.902 73.9858 16.843 73.9858 16.7814V11.0533C73.9858 10.2863 74.0703 9.52412 74.2388 9.04354C74.4048 8.5683 74.6305 8.18917 74.9087 7.91733C75.1742 7.65476 75.4985 7.45995 75.8553 7.34937C76.1897 7.25335 76.5363 7.20466 76.8844 7.20471C77.2849 7.20471 77.7242 7.30762 77.7242 7.30762C77.8718 7.32412 77.9538 7.23383 78.0038 7.10082C78.1354 6.75082 78.5087 5.70277 78.5815 5.49403" fill="#00A1E0"/>
<path fill-rule="evenodd" clip-rule="evenodd" d="M59.8055 0.260541C59.5569 0.185467 59.3045 0.12549 59.0487 0.080932C58.705 0.0235313 58.3565 -0.00343416 58.0079 0.000349205C56.623 0.000349205 55.5312 0.391613 54.7647 1.16443C54.0035 1.93142 53.4856 3.09986 53.2259 4.63724L53.1322 5.15617H51.3938C51.3938 5.15617 51.1817 5.14743 51.137 5.37898L50.8516 6.97121C50.8317 7.12364 50.8972 7.21879 51.1011 7.21782H52.7934L51.0764 16.8018C50.9419 17.5736 50.788 18.2086 50.6176 18.6897C50.4497 19.1644 50.2856 19.5202 50.0836 19.7785C49.888 20.0285 49.7026 20.2125 49.3827 20.3198C49.1186 20.4086 48.8147 20.4494 48.4818 20.4494C48.2964 20.4494 48.0498 20.4183 47.8677 20.3819C47.6857 20.346 47.591 20.3052 47.4546 20.2479C47.4546 20.2479 47.2561 20.1722 47.1779 20.3712C47.1143 20.5338 46.6634 21.7741 46.61 21.9275C46.5556 22.079 46.6318 22.1984 46.7279 22.2329C46.9532 22.3134 47.1206 22.3649 47.4274 22.4372C47.8536 22.5377 48.2129 22.544 48.5492 22.544C49.254 22.544 49.8963 22.445 50.4288 22.2528C50.9647 22.0591 51.4312 21.7217 51.8438 21.2649C52.29 20.7722 52.5705 20.2562 52.839 19.5523C53.1045 18.8547 53.3307 17.9887 53.5118 16.9795L55.237 7.21782H57.7594C57.7594 7.21782 57.972 7.22558 58.0162 6.995L58.3016 5.40277C58.3215 5.25034 58.2565 5.15519 58.0516 5.15617H55.6035C55.6157 5.10083 55.7268 4.23967 56.0079 3.42899C56.1278 3.08287 56.3535 2.80375 56.5448 2.612C56.7234 2.42938 56.9434 2.2925 57.1861 2.21297C57.4521 2.13071 57.7298 2.09074 58.0079 2.09452C58.2385 2.09452 58.4647 2.12219 58.637 2.15812C58.8744 2.2086 58.9667 2.2353 59.0288 2.25375C59.2783 2.32996 59.3118 2.25617 59.3608 2.1353L59.9463 0.527534C60.0065 0.354717 59.8599 0.2819 59.8055 0.260541ZM25.5949 16.8222C25.5949 16.9503 25.5036 17.0547 25.3755 17.0547H23.3449C23.2163 17.0547 23.125 16.9503 23.125 16.8222V0.478505C23.125 0.350835 23.2163 0.247438 23.3449 0.247438H25.3755C25.5036 0.247438 25.5949 0.350835 25.5949 0.478505V16.8222Z" fill="#00A1E0"/>
</g>
<defs>
<clipPath id="clip0_1_1218">
<rect width="100" height="22.8155" fill="white"/>
</clipPath>
</defs>
</svg>

<svg xmlns="http://www.w3.org/2000/svg" width="278.261" height="64" fill="none" viewBox="0 0 100 23"><g fill="#00A1E0" fill-rule="evenodd" clip-path="url(#a)" clip-rule="evenodd"><path d="M.194 15.674c-.083.217.03.262.056.3.248.18.5.31.753.456 1.35.713 2.621.922 3.951.922 2.709 0 4.393-1.441 4.393-3.762v-.046c0-2.145-1.902-2.927-3.68-3.485l-.232-.075c-1.344-.436-2.505-.816-2.505-1.7V8.24c0-.758.68-1.316 1.729-1.316 1.165 0 2.553.388 3.441.879 0 0 .264.17.36-.084.051-.138.504-1.35.553-1.486.051-.142-.04-.25-.132-.305-1.02-.62-2.427-1.043-3.884-1.043h-.27c-2.48 0-4.213 1.5-4.213 3.646v.047c0 2.262 1.912 3 3.699 3.51l.287.089c1.3.4 2.427.747 2.427 1.66v.045c0 .84-.733 1.466-1.908 1.466a6.397 6.397 0 0 1-3.49-1.005c-.19-.11-.3-.19-.447-.28-.077-.048-.271-.133-.356.122L.192 15.67l.002.004Zm39.658-.004c-.083.217.03.262.058.3.247.18.5.31.752.456 1.35.714 2.621.922 3.952.922 2.708 0 4.393-1.441 4.393-3.762v-.045c0-2.146-1.898-2.928-3.68-3.486l-.232-.075c-1.345-.436-2.505-.816-2.505-1.7v-.044c0-.758.68-1.316 1.728-1.316 1.165 0 2.548.388 3.442.879 0 0 .263.17.359-.084.051-.137.505-1.35.548-1.486.052-.142-.038-.25-.13-.304-1.02-.622-2.428-1.044-3.884-1.044h-.271c-2.48 0-4.214 1.5-4.214 3.647v.046c0 2.262 1.913 3 3.7 3.51l.286.089c1.306.4 2.427.747 2.427 1.66v.046c0 .84-.733 1.466-1.907 1.466a6.387 6.387 0 0 1-3.49-1.005c-.191-.111-.303-.188-.448-.281-.049-.031-.277-.12-.355.122l-.535 1.485.006.004Zm27.082-4.547c0 1.31-.245 2.344-.723 3.077-.478.724-1.2 1.078-2.204 1.078-1.005 0-1.724-.351-2.195-1.073-.474-.728-.713-1.767-.713-3.078 0-1.31.24-2.34.714-3.063.47-.718 1.184-1.063 2.194-1.063s1.728.348 2.204 1.063c.481.724.723 1.753.723 3.063v-.004Zm2.262-2.428a5.462 5.462 0 0 0-1.03-1.966 4.927 4.927 0 0 0-1.737-1.32c-.69-.323-1.505-.485-2.427-.485-.922 0-1.733.163-2.427.485a4.991 4.991 0 0 0-1.738 1.32 5.486 5.486 0 0 0-1.03 1.966 8.573 8.573 0 0 0-.332 2.432c0 .87.112 1.685.333 2.433a5.447 5.447 0 0 0 1.029 1.966 4.892 4.892 0 0 0 1.738 1.31c.694.315 1.51.475 2.427.475s1.733-.16 2.422-.475a4.876 4.876 0 0 0 1.738-1.31 5.48 5.48 0 0 0 1.03-1.966c.22-.748.332-1.564.332-2.433 0-.864-.112-1.684-.333-2.432h.005Zm18.587 6.214c-.074-.22-.288-.137-.288-.137-.33.126-.68.242-1.054.3a8.06 8.06 0 0 1-1.238.09c-1.092 0-1.966-.326-2.587-.971-.626-.646-.976-1.685-.97-3.093.002-1.281.312-2.242.868-2.98.549-.728 1.393-1.107 2.51-1.107.932 0 1.645.108 2.393.342 0 0 .177.077.262-.156.199-.549.345-.942.558-1.544.06-.172-.087-.245-.141-.266a8.805 8.805 0 0 0-1.51-.381 11.39 11.39 0 0 0-1.699-.114c-.951 0-1.796.163-2.52.485a5.213 5.213 0 0 0-1.82 1.32 5.61 5.61 0 0 0-1.101 1.966 7.814 7.814 0 0 0-.37 2.437c0 1.874.506 3.393 1.506 4.505 1 1.117 2.504 1.68 4.466 1.68 1.16 0 2.349-.235 3.203-.573 0 0 .163-.079.093-.269l-.559-1.534h-.002Zm3.959-5.048c.108-.729.307-1.335.621-1.806.47-.719 1.184-1.112 2.19-1.112 1.004 0 1.67.395 2.145 1.112.316.473.453 1.102.505 1.806l-5.486-.001h.025Zm7.621-1.602c-.193-.724-.67-1.457-.98-1.792-.496-.529-.976-.903-1.457-1.106a5.582 5.582 0 0 0-2.194-.446c-.956 0-1.825.162-2.53.49a5.041 5.041 0 0 0-1.761 1.345 5.531 5.531 0 0 0-1.04 1.99 8.604 8.604 0 0 0-.335 2.442c0 .884.117 1.704.347 2.447a5.023 5.023 0 0 0 1.112 1.947c.504.548 1.15.975 1.927 1.276.772.299 1.709.454 2.781.45 2.214-.007 3.38-.5 3.855-.767.085-.047.165-.13.065-.366l-.5-1.403c-.077-.209-.288-.133-.288-.133-.55.205-1.326.573-3.146.568-1.19-.002-2.068-.353-2.621-.903-.564-.563-.845-1.384-.889-2.549l7.67.006s.202-.002.223-.199c.008-.081.263-1.573-.229-3.296l-.01-.001ZM30.431 9.86c.108-.729.308-1.335.621-1.806.47-.719 1.185-1.112 2.19-1.112s1.67.395 2.145 1.112c.315.473.453 1.102.505 1.806l-5.485-.001h.024Zm7.621-1.602c-.192-.724-.67-1.457-.98-1.792-.495-.529-.976-.903-1.457-1.106a5.583 5.583 0 0 0-2.194-.446c-.956 0-1.825.162-2.529.49A5.042 5.042 0 0 0 29.13 6.75a5.547 5.547 0 0 0-1.039 1.99 8.622 8.622 0 0 0-.335 2.442c0 .884.116 1.704.348 2.447a5.07 5.07 0 0 0 1.107 1.947c.505.548 1.15.975 1.927 1.276.772.299 1.704.454 2.781.45 2.214-.007 3.379-.5 3.855-.767.084-.047.165-.13.064-.366l-.5-1.403c-.077-.209-.289-.133-.289-.133-.548.205-1.325.573-3.145.568-1.185-.002-2.068-.353-2.622-.903-.563-.563-.844-1.384-.888-2.549l7.67.006s.202-.002.223-.199c.008-.081.262-1.573-.23-3.296l-.005-.001ZM13.878 14.86c-.3-.24-.343-.298-.442-.454-.152-.234-.23-.568-.23-.995 0-.67.224-1.155.685-1.48-.005 0 .66-.573 2.223-.554.696.012 1.39.072 2.078.177v3.48s-.97.21-2.067.276c-1.559.094-2.248-.449-2.243-.447l-.004-.002Zm3.048-5.388c-.31-.023-.713-.034-1.194-.034a7.23 7.23 0 0 0-1.883.242 4.908 4.908 0 0 0-1.598.743c-.462.33-.842.761-1.111 1.262-.272.505-.41 1.097-.41 1.767 0 .68.118 1.267.351 1.747.228.477.572.89 1 1.2.426.31.951.538 1.558.674a9.17 9.17 0 0 0 2.03.207c.786 0 1.567-.066 2.325-.194a46.37 46.37 0 0 0 1.927-.374c.255-.06.539-.136.539-.136.189-.049.174-.25.174-.25l-.004-6.991c0-1.534-.41-2.675-1.218-3.379-.806-.704-1.986-1.058-3.515-1.058-.573 0-1.5.078-2.053.189 0 0-1.67.324-2.36.864 0 0-.151.093-.069.304l.544 1.457c.068.188.252.124.252.124s.057-.023.125-.063c1.471-.801 3.335-.777 3.335-.777.826 0 1.466.167 1.893.495.418.321.632.806.632 1.825v.324c-.656-.095-1.263-.15-1.263-.15l-.007-.018Zm61.65-3.946a.202.202 0 0 0 .002-.163.208.208 0 0 0-.116-.113c-.131-.05-.782-.187-1.282-.218-.961-.06-1.495.102-1.976.317-.474.214-1 .559-1.291.957v-.932c0-.129-.092-.232-.22-.232H71.73c-.127 0-.22.103-.22.232V16.78a.232.232 0 0 0 .233.233h2.01a.233.233 0 0 0 .232-.233v-5.728c0-.767.084-1.529.253-2.01.166-.475.391-.854.67-1.126.265-.262.59-.457.946-.568a3.728 3.728 0 0 1 1.03-.144c.4 0 .84.103.84.103.147.016.229-.074.279-.207.131-.35.505-1.398.578-1.607"/><path d="M59.806.26A5.93 5.93 0 0 0 58.008 0c-1.385 0-2.477.392-3.243 1.164-.761.767-1.28 1.936-1.54 3.473l-.093.52h-1.738s-.212-.01-.257.222l-.285 1.592c-.02.153.045.248.25.247h1.691l-1.717 9.584c-.134.772-.288 1.407-.458 1.888-.168.474-.332.83-.534 1.088-.196.25-.381.434-.701.542a2.84 2.84 0 0 1-.901.13c-.186 0-.432-.032-.614-.068-.182-.036-.277-.077-.413-.134 0 0-.199-.076-.277.123-.064.163-.515 1.403-.568 1.556-.054.152.022.271.118.306.225.08.393.132.7.204.426.1.785.107 1.121.107.705 0 1.347-.099 1.88-.291.536-.194 1.002-.531 1.415-.988.446-.493.727-1.009.995-1.713.266-.697.492-1.563.673-2.572l1.725-9.762h2.522s.213.008.257-.223l.286-1.592c.02-.153-.045-.248-.25-.247h-2.449c.013-.055.124-.916.405-1.727.12-.346.345-.625.537-.817a1.59 1.59 0 0 1 .641-.399c.266-.082.544-.122.822-.118.23 0 .457.027.629.063.237.05.33.077.392.096.25.076.283.002.332-.119l.585-1.607c.06-.173-.086-.246-.14-.267ZM25.595 16.823c0 .128-.091.233-.22.233h-2.03c-.129 0-.22-.105-.22-.233V.48c0-.128.091-.232.22-.232h2.03c.129 0 .22.104.22.232v16.343Z"/></g><defs><clipPath id="a"><path fill="#fff" d="M0 0h100v22.816H0z"/></clipPath></defs></svg>
